X:1
T: Miss Menzies of Menzies
C:William McLeish
R:Strathspey
Q: 128
K:Bb
M:4/4
L:1/16
|:g2|f2B2 BBB2 d4 c2B2|G2B2 F2D2 E2C2 C2g2|f2B2 BBB2 d4 c2B2|G2B2 F2E2 D2B,2 B,2g2|
f2B2 BBB2 d4 c2B2|G2E2 F2D2 E2C2 C2G2|F2D2 F2_A2 G2E2 G2B2|A2F2 e2c2 d2B2 B2:|
|:g2|f2B2 d2B2 F2B2 d2g2|f2B2 d2B2 e2c2 c2b2|f2B2 d2B2 d2f2 b2g2|f2d2 c2B2 F2B2 B2g2|
f2B2 d2f2 B2f2 d2f2|e2g2 d2f2 g2c2 c2e2|G2E2 G2B2 F2D2 F2e2|d2f2 c2e2 d2B2 B2:|
